X:9
T:Lads a'Buncham - Adderbury
R: Rag Morris
K: G
L: 1/8
M: 4/4
Z: Mackin 
C: Trad
r: 16
P:A
|: D3/G/ | "G"B3 A B3/c/d3/e/ | "C"c2 A2 "D7"A2 B3/c/ | "G"d2 d2 "D7"d3/c/B3/A/ | "G"G2 G2 G2 :|
P:B
|: g3/f/ | "C"e2 d2 "G"d2 G3/A/ | "G"B2 B2 B2 g3/f/ | "C"e2 "B"d2 "A"c2 "G"B2 | "D7"A2 G2 "G"G2 :|
W: Morris formula A.(AB)6 statistically. 
W: The newest rag tune! and last to make it to the tune book. 
W: Also warning, singing. 